z_dist/img/icons/crypto/the-graph-GRT.svg

<svg width="64" height="64" viewBox="0 0 64 64" fill="none" xmlns="http://www.w3.org/2000/svg">
<rect y="0.000488281" width="64" height="64" rx="4" fill="#6747ED"/>
<path fill-rule="evenodd" clip-rule="evenodd" d="M31.4388 36.2396C26.716 36.2396 22.9245 32.4446 22.9245 27.7174C22.9245 22.9902 26.716 19.1951 31.4388 19.1951C36.1616 19.1951 39.9531 22.9902 39.9531 27.7174C39.9531 32.4446 36.1616 36.2396 31.4388 36.2396ZM31.4382 14.9341C38.4892 14.9341 44.2097 20.66 44.2097 27.7174C44.2097 34.7749 38.4892 40.5008 31.4382 40.5008C24.3873 40.5008 18.6667 34.7749 18.6667 27.7174C18.6667 20.66 24.3873 14.9341 31.4382 14.9341ZM43.6119 41.1666C44.4767 42.0321 44.4767 43.3637 43.6119 44.1627L35.0976 52.6849C34.2329 53.5504 32.9025 53.5504 32.1043 52.6849C31.2395 51.8194 31.2395 50.4878 32.1043 49.6888L40.6186 41.1666C41.4168 40.301 42.8137 40.301 43.6119 41.1666ZM48.5332 17.0646C48.5332 18.2631 47.6019 19.1952 46.4046 19.1952C45.2073 19.1952 44.276 18.2631 44.276 17.0646C44.276 15.8662 45.2073 14.9341 46.4046 14.9341C47.5354 14.9341 48.5332 15.8662 48.5332 17.0646Z" fill="white"/>
</svg>

<svg width="64" height="64" fill="none" xmlns="http://www.w3.org/2000/svg"><rect width="64" height="64" rx="4" fill="#6747ED"/><path fill-rule="evenodd" clip-rule="evenodd" d="M31.439 36.24a8.492 8.492 0 01-8.515-8.523 8.492 8.492 0 018.515-8.522 8.492 8.492 0 018.514 8.522 8.492 8.492 0 01-8.514 8.523zm0-21.306c7.05 0 12.77 5.726 12.77 12.783 0 7.058-5.72 12.784-12.77 12.784-7.052 0-12.772-5.726-12.772-12.784 0-7.057 5.72-12.783 12.771-12.783zm12.173 26.233c.865.865.865 2.197 0 2.996l-8.514 8.522c-.865.865-2.195.865-2.994 0-.864-.866-.864-2.197 0-2.996l8.515-8.522a2.05 2.05 0 012.993 0zm4.921-24.102c0 1.198-.931 2.13-2.128 2.13a2.102 2.102 0 01-2.129-2.13c0-1.199.931-2.13 2.129-2.13 1.13 0 2.128.931 2.128 2.13z" fill="#fff"/></svg>
